X:1
T:Im Sedel zHerisau (Zeuerli). C-Dur
T:Naturjodel rund um den Saentis (www.roothuus-gonten.ch)
%%partsbox
%P:
Q:1/4=63
R:Naturjodel
M:7/4
L:1/8
K:C  %  (%%MIDI gchordo) 
[P:A]  "C"C3EE2G2e3dc2 | [M:6/4] "G7"f3BA2G2B,4 | [M:7/4]B,3FF2G2f3ed2 | [M:6/4] "C"e3cA2G2C4 |
"_simile"C3EE2G2e3dc2 | [M:6/4] "G7"f3BA2G2B,4 | [M:7/4]B,3FF2G2f3ed2 | [M:4/4] "C"c8 |] 
M:7/4
[P:B] "C"C3EE2G2c3Bc2 | [M:6/4] "G7"d3BA2G2B,4 | [M:7/4] B,3FF2G2f3ed2 | [M:6/4] "C"e3cA2G2c4 | 
w: jo di do jo u du du u lu di du jo jo di do jo u-u du u li di di u 
"_simile"C3EE2G2c3Bc2 | [M:6/4] "G7"d3BA2G2B,4 | [M:7/4] B,3FF2G2"_u"g3"_u"f"_du"d2 | [M:4/4] "C"c8 |] 
w: || |        u 
W:
%W:Parts: AB
W:Männerstimmen mit Kontrabass
W:Urnäscher Streichmusik, unter der Leitung von Jakob Alder (Widenbach-Jock 1888-1956)
W: Schellackplatte "Im Sedel z'Herisau" Columbia D 3208, 1929
W:
W:Jodler: sehr hohe Stimmlage, bis g''
W: Die Interpretation ist ausserrhodisch (AR), die Melodie innerrhodisch (AI).
W:Jodler Erwin Schoch lernte den 1.Teil dieses Zäuerlis von seiner (innerrhod.) Mutter. 
W: 
W:https://www.roothuus-gonten.ch/mediendateien/jodel/pdf/Im Sedel.pdf
W: *AUDIO*:  www.roothuus-gonten.ch/cms/index.php/de/naturjodel-rund-um-den-saentis
% © 2017 ROOTHUUS GONTEN. #1471.10
% Feb. 3, 2019



